packages/tokens/icons/browserWindow/size16Px.svg

<svg viewBox="0 0 16 16" fill="none" xmlns="http://www.w3.org/2000/svg" width="1em" height="1em"><path d="M1.5 3C1.5 2.17157 2.17157 1.5 3 1.5L13 1.5C13.8284 1.5 14.5 2.17157 14.5 3V13C14.5 13.8284 13.8284 14.5 13 14.5H3C2.17157 14.5 1.5 13.8284 1.5 13L1.5 3Z" stroke="currentColor"/><path d="M2 3.5L14 3.5" stroke="currentColor"/><path d="M3.5 7C3.5 6.72386 3.72386 6.5 4 6.5H7C7.27614 6.5 7.5 6.72386 7.5 7V12C7.5 12.2761 7.27614 12.5 7 12.5H4C3.72386 12.5 3.5 12.2761 3.5 12L3.5 7Z" stroke="currentColor"/><path d="M9.5 7.5H12.5M9.5 9.5H12.5M9.5 11.5H12.5" stroke="currentColor" stroke-linecap="round"/></svg>

<svg xmlns="http://www.w3.org/2000/svg" fill="none" viewBox="0 0 16 16" width="1em" height="1em"><path stroke="currentColor" d="M1.5 3A1.5 1.5 0 0 1 3 1.5h10A1.5 1.5 0 0 1 14.5 3v10a1.5 1.5 0 0 1-1.5 1.5H3A1.5 1.5 0 0 1 1.5 13V3Zm.5.5h12"/><path stroke="currentColor" d="M3.5 7a.5.5 0 0 1 .5-.5h3a.5.5 0 0 1 .5.5v5a.5.5 0 0 1-.5.5H4a.5.5 0 0 1-.5-.5V7Z"/><path stroke="currentColor" stroke-linecap="round" d="M9.5 7.5h3m-3 2h3m-3 2h3"/></svg>
